X:26
T: SCHLAF MAIN KINDERL SCHLAF
N: K0109
O: Europa, Mitteleuropa, Oesterreich
R: Kinder -, Wiegen - Lied
M: 2/4
L: 1/8
K: F
 | ccBG | F2z
A | ccBG | F2z
F | GGGG | ccA
F | GGGG | ccA2 |
ccBG | F2z2

@@@ Tune index: 7363
